svg/u1f39e.svg

<svg viewBox="0 0 128 128" xmlns="http://www.w3.org/2000/svg">
  <g>
    <g opacity="0.85">
      <rect height="61.97" fill="#B7855F" width="120" x="4" y="33.83"/>
    </g>
    <g>
      <linearGradient id="SVGID_1_" gradientUnits="userSpaceOnUse" x1="18.1983" x2="87.2089" y1="78.9609" y2="57.9256">
        <stop offset="0" stop-color="#424242"/>
        <stop offset="0.3935" stop-color="#44545B"/>
        <stop offset="0.5171" stop-color="#455A64"/>
        <stop offset="0.7406" stop-color="#445157"/>
        <stop offset="1" stop-color="#424242"/>
      </linearGradient>
      <path d="M124,34.96V18.24H4v16.73h11.98v59.71H4v17.09h120V94.67h-11.98V34.96H124z M113.35,26.02 c0-0.91,0.74-1.65,1.65-1.65h2.18c0.91,0,1.65,0.74,1.65,1.65v4.01c0,0.91-0.74,1.65-1.65,1.65H115c-0.91,0-1.65-0.74-1.65-1.65 V26.02z M14.65,30.03c0,0.91-0.74,1.65-1.65,1.65h-2.18c-0.91,0-1.65-0.74-1.65-1.65v-4.01c0-0.91,0.74-1.65,1.65-1.65H13 c0.91,0,1.65,0.74,1.65,1.65V30.03z M14.65,103.62c0,0.91-0.74,1.65-1.65,1.65h-2.18c-0.91,0-1.65-0.74-1.65-1.65V99.6 c0-0.91,0.74-1.65,1.65-1.65H13c0.91,0,1.65,0.74,1.65,1.65V103.62z M113.35,99.6c0-0.91,0.74-1.65,1.65-1.65h2.18 c0.91,0,1.65,0.74,1.65,1.65v4.01c0,0.91-0.74,1.65-1.65,1.65H115c-0.91,0-1.65-0.74-1.65-1.65V99.6z M101.77,26.02 c0-0.91,0.74-1.65,1.65-1.65h2.18c0.91,0,1.65,0.74,1.65,1.65v4.01c0,0.91-0.74,1.65-1.65,1.65h-2.18c-0.91,0-1.65-0.74-1.65-1.65 V26.02z M90.2,26.02c0-0.91,0.74-1.65,1.65-1.65h2.18c0.91,0,1.65,0.74,1.65,1.65v4.01c0,0.91-0.74,1.65-1.65,1.65h-2.18 c-0.91,0-1.65-0.74-1.65-1.65V26.02z M78.62,26.02c0-0.91,0.74-1.65,1.65-1.65h2.18c0.91,0,1.65,0.74,1.65,1.65v4.01 c0,0.91-0.74,1.65-1.65,1.65h-2.18c-0.91,0-1.65-0.74-1.65-1.65V26.02z M67.05,26.02c0-0.91,0.74-1.65,1.65-1.65h2.18 c0.91,0,1.65,0.74,1.65,1.65v4.01c0,0.91-0.74,1.65-1.65,1.65H68.7c-0.91,0-1.65-0.74-1.65-1.65V26.02z M55.47,26.02 c0-0.91,0.74-1.65,1.65-1.65h2.18c0.91,0,1.65,0.74,1.65,1.65v4.01c0,0.91-0.74,1.65-1.65,1.65h-2.18c-0.91,0-1.65-0.74-1.65-1.65 V26.02z M43.9,26.02c0-0.91,0.74-1.65,1.65-1.65h2.18c0.91,0,1.65,0.74,1.65,1.65v4.01c0,0.91-0.74,1.65-1.65,1.65h-2.18 c-0.91,0-1.65-0.74-1.65-1.65V26.02z M32.32,26.02c0-0.91,0.74-1.65,1.65-1.65h2.18c0.91,0,1.65,0.74,1.65,1.65v4.01 c0,0.91-0.74,1.65-1.65,1.65h-2.18c-0.91,0-1.65-0.74-1.65-1.65V26.02z M20.75,26.02c0-0.91,0.74-1.65,1.65-1.65h2.18 c0.91,0,1.65,0.74,1.65,1.65v4.01c0,0.91-0.74,1.65-1.65,1.65H22.4c-0.91,0-1.65-0.74-1.65-1.65V26.02z M26.23,103.62 c0,0.91-0.74,1.65-1.65,1.65H22.4c-0.91,0-1.65-0.74-1.65-1.65V99.6c0-0.91,0.74-1.65,1.65-1.65h2.18c0.91,0,1.65,0.74,1.65,1.65 V103.62z M37.8,103.62c0,0.91-0.74,1.65-1.65,1.65h-2.18c-0.91,0-1.65-0.74-1.65-1.65V99.6c0-0.91,0.74-1.65,1.65-1.65h2.18 c0.91,0,1.65,0.74,1.65,1.65V103.62z M49.38,103.62c0,0.91-0.74,1.65-1.65,1.65h-2.18c-0.91,0-1.65-0.74-1.65-1.65V99.6 c0-0.91,0.74-1.65,1.65-1.65h2.18c0.91,0,1.65,0.74,1.65,1.65V103.62z M60.95,103.62c0,0.91-0.74,1.65-1.65,1.65h-2.18 c-0.91,0-1.65-0.74-1.65-1.65V99.6c0-0.91,0.74-1.65,1.65-1.65h2.18c0.91,0,1.65,0.74,1.65,1.65V103.62z M72.53,103.62 c0,0.91-0.74,1.65-1.65,1.65H68.7c-0.91,0-1.65-0.74-1.65-1.65V99.6c0-0.91,0.74-1.65,1.65-1.65h2.18c0.91,0,1.65,0.74,1.65,1.65 V103.62z M84.1,103.62c0,0.91-0.74,1.65-1.65,1.65h-2.18c-0.91,0-1.65-0.74-1.65-1.65V99.6c0-0.91,0.74-1.65,1.65-1.65h2.18 c0.91,0,1.65,0.74,1.65,1.65V103.62z M95.68,103.62c0,0.91-0.74,1.65-1.65,1.65h-2.18c-0.91,0-1.65-0.74-1.65-1.65V99.6 c0-0.91,0.74-1.65,1.65-1.65h2.18c0.91,0,1.65,0.74,1.65,1.65V103.62z M107.25,103.62c0,0.91-0.74,1.65-1.65,1.65h-2.18 c-0.91,0-1.65-0.74-1.65-1.65V99.6c0-0.91,0.74-1.65,1.65-1.65h2.18c0.91,0,1.65,0.74,1.65,1.65V103.62z M108.04,94.67H19.96 V34.96h88.08V94.67z" fill="url(#SVGID_1_)"/>
      <line fill="none" stroke="#757575" stroke-width="0.9587" stroke-miterlimit="10" x1="4.66" x2="124" y1="18.24" y2="18.24"/>
      <linearGradient id="SVGID_2_" gradientUnits="userSpaceOnUse" x1="27.0168" x2="88.0116" y1="80.8589" y2="54.9361">
        <stop offset="0" stop-color="#FFCC80" stop-opacity="0"/>
        <stop offset="0.4864" stop-color="#FFCC80" stop-opacity="0.4"/>
        <stop offset="1" stop-color="#FFCC80" stop-opacity="0"/>
      </linearGradient>
      <rect height="59.71" fill="url(#SVGID_2_)" width="88.08" x="20.29" y="35.15"/>
    </g>
  </g>
</svg>

<svg viewBox="0 0 128 128" xmlns="http://www.w3.org/2000/svg">
  <defs>
    <linearGradient id="SVGID_1_" gradientUnits="userSpaceOnUse" x1="18.1983" x2="87.2089" y1="78.9609" y2="57.9256">
      <stop offset="0" stop-color="#424242"/>
      <stop offset="0.3935" stop-color="#44545B"/>
      <stop offset="0.5171" stop-color="#455A64"/>
      <stop offset="0.7406" stop-color="#445157"/>
      <stop offset="1" stop-color="#424242"/>
    </linearGradient>
    <linearGradient id="SVGID_2_" gradientUnits="userSpaceOnUse" x1="27.0168" x2="88.0116" y1="80.8589" y2="54.9361">
      <stop offset="0" stop-color="#FFCC80" stop-opacity="0"/>
      <stop offset="0.4864" stop-color="#FFCC80" stop-opacity="0.4"/>
      <stop offset="1" stop-color="#FFCC80" stop-opacity="0"/>
    </linearGradient>
  </defs>
  <path d="M4,33.83 L124,33.83 L124,95.8 L4,95.8 L4,33.83 Z" fill="#B7855F" opacity="0.85"/>
  <path d="M124,34.96 L124,18.24 L4,18.24 L4,34.97 L15.98,34.97 L15.98,94.68 L4,94.68 L4,111.77 L124,111.77 L124,94.67 L112.02,94.67 L112.02,34.96 L124,34.96 Z M113.35,26.02 C113.35,25.11 114.09,24.37 115,24.37 L117.18,24.37 C118.09,24.37 118.83,25.11 118.83,26.02 L118.83,30.03 C118.83,30.94 118.09,31.68 117.18,31.68 L115,31.68 C114.09,31.68 113.35,30.94 113.35,30.03 L113.35,26.02 Z M14.65,30.03 C14.65,30.94 13.91,31.68 13,31.68 L10.82,31.68 C9.91,31.68 9.17,30.94 9.17,30.03 L9.17,26.02 C9.17,25.11 9.91,24.37 10.82,24.37 L13,24.37 C13.91,24.37 14.65,25.11 14.65,26.02 L14.65,30.03 Z M14.65,103.62 C14.65,104.53 13.91,105.27 13,105.27 L10.82,105.27 C9.91,105.27 9.17,104.53 9.17,103.62 L9.17,99.6 C9.17,98.69 9.91,97.95 10.82,97.95 L13,97.95 C13.91,97.95 14.65,98.69 14.65,99.6 L14.65,103.62 Z M113.35,99.6 C113.35,98.69 114.09,97.95 115,97.95 L117.18,97.95 C118.09,97.95 118.83,98.69 118.83,99.6 L118.83,103.61 C118.83,104.52 118.09,105.26 117.18,105.26 L115,105.26 C114.09,105.26 113.35,104.52 113.35,103.61 L113.35,99.6 Z M101.77,26.02 C101.77,25.11 102.51,24.37 103.42,24.37 L105.6,24.37 C106.51,24.37 107.25,25.11 107.25,26.02 L107.25,30.03 C107.25,30.94 106.51,31.68 105.6,31.68 L103.42,31.68 C102.51,31.68 101.77,30.94 101.77,30.03 L101.77,26.02 Z M90.2,26.02 C90.2,25.11 90.94,24.37 91.85,24.37 L94.03,24.37 C94.94,24.37 95.68,25.11 95.68,26.02 L95.68,30.03 C95.68,30.94 94.94,31.68 94.03,31.68 L91.85,31.68 C90.94,31.68 90.2,30.94 90.2,30.03 L90.2,26.02 Z M78.62,26.02 C78.62,25.11 79.36,24.37 80.27,24.37 L82.45,24.37 C83.36,24.37 84.1,25.11 84.1,26.02 L84.1,30.03 C84.1,30.94 83.36,31.68 82.45,31.68 L80.27,31.68 C79.36,31.68 78.62,30.94 78.62,30.03 L78.62,26.02 Z M67.05,26.02 C67.05,25.11 67.79,24.37 68.7,24.37 L70.88,24.37 C71.79,24.37 72.53,25.11 72.53,26.02 L72.53,30.03 C72.53,30.94 71.79,31.68 70.88,31.68 L68.7,31.68 C67.79,31.68 67.05,30.94 67.05,30.03 L67.05,26.02 Z M55.47,26.02 C55.47,25.11 56.21,24.37 57.12,24.37 L59.3,24.37 C60.21,24.37 60.95,25.11 60.95,26.02 L60.95,30.03 C60.95,30.94 60.21,31.68 59.3,31.68 L57.12,31.68 C56.21,31.68 55.47,30.94 55.47,30.03 L55.47,26.02 Z M43.9,26.02 C43.9,25.11 44.64,24.37 45.55,24.37 L47.73,24.37 C48.64,24.37 49.38,25.11 49.38,26.02 L49.38,30.03 C49.38,30.94 48.64,31.68 47.73,31.68 L45.55,31.68 C44.64,31.68 43.9,30.94 43.9,30.03 L43.9,26.02 Z M32.32,26.02 C32.32,25.11 33.06,24.37 33.97,24.37 L36.15,24.37 C37.06,24.37 37.8,25.11 37.8,26.02 L37.8,30.03 C37.8,30.94 37.06,31.68 36.15,31.68 L33.97,31.68 C33.06,31.68 32.32,30.94 32.32,30.03 L32.32,26.02 Z M20.75,26.02 C20.75,25.11 21.49,24.37 22.4,24.37 L24.58,24.37 C25.49,24.37 26.23,25.11 26.23,26.02 L26.23,30.03 C26.23,30.94 25.49,31.68 24.58,31.68 L22.4,31.68 C21.49,31.68 20.75,30.94 20.75,30.03 L20.75,26.02 Z M26.23,103.62 C26.23,104.53 25.49,105.27 24.58,105.27 L22.4,105.27 C21.49,105.27 20.75,104.53 20.75,103.62 L20.75,99.6 C20.75,98.69 21.49,97.95 22.4,97.95 L24.58,97.95 C25.49,97.95 26.23,98.69 26.23,99.6 L26.23,103.62 Z M37.8,103.62 C37.8,104.53 37.06,105.27 36.15,105.27 L33.97,105.27 C33.06,105.27 32.32,104.53 32.32,103.62 L32.32,99.6 C32.32,98.69 33.06,97.95 33.97,97.95 L36.15,97.95 C37.06,97.95 37.8,98.69 37.8,99.6 L37.8,103.62 Z M49.38,103.62 C49.38,104.53 48.64,105.27 47.73,105.27 L45.55,105.27 C44.64,105.27 43.9,104.53 43.9,103.62 L43.9,99.6 C43.9,98.69 44.64,97.95 45.55,97.95 L47.73,97.95 C48.64,97.95 49.38,98.69 49.38,99.6 L49.38,103.62 Z M60.95,103.62 C60.95,104.53 60.21,105.27 59.3,105.27 L57.12,105.27 C56.21,105.27 55.47,104.53 55.47,103.62 L55.47,99.6 C55.47,98.69 56.21,97.95 57.12,97.95 L59.3,97.95 C60.21,97.95 60.95,98.69 60.95,99.6 L60.95,103.62 Z M72.53,103.62 C72.53,104.53 71.79,105.27 70.88,105.27 L68.7,105.27 C67.79,105.27 67.05,104.53 67.05,103.62 L67.05,99.6 C67.05,98.69 67.79,97.95 68.7,97.95 L70.88,97.95 C71.79,97.95 72.53,98.69 72.53,99.6 L72.53,103.62 Z M84.1,103.62 C84.1,104.53 83.36,105.27 82.45,105.27 L80.27,105.27 C79.36,105.27 78.62,104.53 78.62,103.62 L78.62,99.6 C78.62,98.69 79.36,97.95 80.27,97.95 L82.45,97.95 C83.36,97.95 84.1,98.69 84.1,99.6 L84.1,103.62 Z M95.68,103.62 C95.68,104.53 94.94,105.27 94.03,105.27 L91.85,105.27 C90.94,105.27 90.2,104.53 90.2,103.62 L90.2,99.6 C90.2,98.69 90.94,97.95 91.85,97.95 L94.03,97.95 C94.94,97.95 95.68,98.69 95.68,99.6 L95.68,103.62 Z M107.25,103.62 C107.25,104.53 106.51,105.27 105.6,105.27 L103.42,105.27 C102.51,105.27 101.77,104.53 101.77,103.62 L101.77,99.6 C101.77,98.69 102.51,97.95 103.42,97.95 L105.6,97.95 C106.51,97.95 107.25,98.69 107.25,99.6 L107.25,103.62 Z M108.04,94.67 L19.96,94.67 L19.96,34.96 L108.04,34.96 L108.04,94.67 Z" fill="url(#SVGID_1_)"/>
  <path d="M4.66,17.761 L124,17.761 L124,18.719 L4.66,18.719 L4.66,17.761 Z" fill="#757575"/>
  <path d="M20.29,35.15 L108.37,35.15 L108.37,94.86 L20.29,94.86 L20.29,35.15 Z" fill="url(#SVGID_2_)"/>
</svg>
